Origami/64x64/apps/mog.svg

<svg width="64" height="64" version="1" xmlns="http://www.w3.org/2000/svg">
 <path d="M 59.958,31.828 A 28,28 0 0 1 32,59 28,28 0 0 1 4.044,32.172 28,28 0 0 0 4,33 28,28 0 0 0 32,61 28,28 0 0 0 60,33 28,28 0 0 0 59.958,31.828 Z" style="opacity:.2"/>
 <path d="M 60,32 A 28,28 0 0 1 32,60 28,28 0 0 1 4,32 28,28 0 0 1 32,4 28,28 0 0 1 60,32 Z" style="fill:#4f4f4f"/>
 <path d="M 31.998047 4 A 28 28 0 0 0 4 32 A 28 28 0 0 0 4.0175781 32.492188 A 28 28 0 0 1 31.998047 5 L 32 5 A 28 28 0 0 1 59.972656 32.5 A 28 28 0 0 0 59.998047 32 A 28 28 0 0 0 32 4 L 31.998047 4 z" style="fill:#ffffff;opacity:.1"/>
 <path d="m32 15a18 18 0 0 0 -18 18 18 18 0 0 0 18 18 18 18 0 0 0 18 -18 18 18 0 0 0 -18 -18zm0 8a10 10 0 0 1 10 10 10 10 0 0 1 -10 10 10 10 0 0 1 -10 -10 10 10 0 0 1 10 -10z" style="opacity:.2"/>
 <path d="m32 14a18 18 0 0 0 -18 18 18 18 0 0 0 18 18 18 18 0 0 0 18 -18 18 18 0 0 0 -18 -18zm0 8a10 10 0 0 1 10 10 10 10 0 0 1 -10 10 10 10 0 0 1 -10 -10 10 10 0 0 1 10 -10z" style="fill:#ffffff"/>
</svg>

<svg xmlns="http://www.w3.org/2000/svg" width="64" height="64" version="1">
 <path style="opacity:0.2" d="M 59.958,31.828 A 28,28 0 0 1 32,59 28,28 0 0 1 4.044,32.172 28,28 0 0 0 4,33 28,28 0 0 0 32,61 28,28 0 0 0 60,33 28,28 0 0 0 59.958,31.828 Z"/>
 <path style="fill:#4f4f4f" d="M 60,32 A 28,28 0 0 1 32,60 28,28 0 0 1 4,32 28,28 0 0 1 32,4 28,28 0 0 1 60,32 Z"/>
 <path style="opacity:0.1;fill:#ffffff" d="M 31.998047 4 A 28 28 0 0 0 4 32 A 28 28 0 0 0 4.0175781 32.492188 A 28 28 0 0 1 31.998047 5 L 32 5 A 28 28 0 0 1 59.972656 32.5 A 28 28 0 0 0 59.998047 32 A 28 28 0 0 0 32 4 L 31.998047 4 z"/>
 <path style="opacity:0.2" d="M 32,15 A 18,18 0 0 0 14,33 18,18 0 0 0 32,51 18,18 0 0 0 50,33 18,18 0 0 0 32,15 Z m 0,8 A 10,10 0 0 1 42,33 10,10 0 0 1 32,43 10,10 0 0 1 22,33 10,10 0 0 1 32,23 Z"/>
 <path style="fill:#ffffff" d="M 32,14 A 18,18 0 0 0 14,32 18,18 0 0 0 32,50 18,18 0 0 0 50,32 18,18 0 0 0 32,14 Z m 0,8 A 10,10 0 0 1 42,32 10,10 0 0 1 32,42 10,10 0 0 1 22,32 10,10 0 0 1 32,22 Z"/>
</svg>
